X: 412
T: The Redhaired Man's Wife
N:"Slow" "collected by Enright"
N:Irish title: bean an fir rua.d
B:O'Neill's 412
Z:Transcribed by henrik.norbeck@mailbox.swipnet.se
M:3/4
L:1/8
K:G
(A/B/4c/4d/4e/4f/4g/4) | a2 (bg af) | g2 (a>g fe) | d2 d2 cA | c2 d2 ((6A/B/c/d/e/f/) | g4 fg |
a2 (bg af) | g2 (ag fe) | d2 d2 (cA) | {B}A2 G2 GA | {F}G4 :|
(dc) | ({c}BABdcA) | (TGFGdcA) | G2 (GB) (A/G/F/A/) | G2 A2 (Bc) |
{c}d4 (A/B/4c/4d/4e/4f/4g/4) | a2 (bg af) | g2 ((3agf) ((3gfe) | d2 (de) (cA) | {B}A2 G2 GA | {F}G4 ||


